svg-image.svg

<svg xmlns="http://www.w3.org/2000/svg" width="24" height="24" viewBox="0 0 24 24"><path fill="black"" d="M12 2C14.761 2 17 4.238 17 7V9H7V7C7 4.238 9.238 2 12 2ZM10.5 5.5C10.5 6.329 11.172 7 12 7C12.828 7 13.5 6.329 13.5 5.5C13.5 4.671 12.828 4 12 4C11.172 4 10.5 4.671 10.5 5.5ZM23 22H17L19 19V12H17V18C17 18.553 16.552 19 16 19H14L15 22H9L10 19H8C7.448 19 7 18.553 7 18V12H5V19L7 22H1L3 19V12C3 10.896 3.897 10 5 10H19C20.103 10 21 10.896 21 12V19L23 22ZM13 14C13 14.553 13.448 15 14 15C14.552 15 15 14.553 15 14C15 13.447 14.552 13 14 13C13.448 13 13 13.447 13 14Z"/></svg>

<svg xmlns="http://www.w3.org/2000/svg" width="24" height="24" viewBox="0 0 24 24"><path fill="black" d="M12 2a5 5 0 0 1 5 5v2H7V7a5 5 0 0 1 5-5Zm-1.5 3.5a1.5 1.5 0 1 0 3 0 1.5 1.5 0 0 0-3 0ZM23 22h-6l2-3v-7h-2v6a1 1 0 0 1-1 1h-2l1 3H9l1-3H8a1 1 0 0 1-1-1v-6H5v7l2 3H1l2-3v-7c0-1.104.897-2 2-2h14c1.103 0 2 .896 2 2v7l2 3Zm-10-8a1 1 0 1 0 2 0 1 1 0 0 0-2 0Z"/></svg>
